!!!!SEGMENT: pl-lzu--m-15111--001-018_noskowski-zygmunt--spiewnik-dla-dzieci-op-34-18-wielkanoc.krn
!!!cenid: 18xx:4715
!!!COM: Noskowski, Zygmunt
!!!COM-rismID: pe106604
!!!CDT: 1846/05/02-1909/07/23
!!!CNT: Polish
!!!GTL: Śpiewnik dla dzieci, op. 34
!!!OTL: 18. Wielkanoc
!!!OMV: 018
!!!PDT: 1890
!!!AGN: Secular; Song; Children
!!!YEC: Copyright 2022 Narodowy Instytut Fryderyka Chopina (https://polishscores.org)
!!!YEM: License CC-BY-4.0 (https://creativecommons.org/licenses/by/4.0)
!!!SMS-siglum: PL-LŹu
!!!SMS-shelfmark: M 15111
!!!SMS-variant:
!!!SMS-altvar:
!!!SMS-shelfwork: 001-018 G
!!!NIFC-rismSourceID: 1001234040
!!!NIFC-rismChildID: 1001234040
!!!NIFC-islandoraID: pl-lzu:5455
!!!URL-pdf-islandora: https://repozytorium.nifc.pl/islandora/object/pl-lzu%3A5455/datastream/PDF/view
!!!URL-scan: https://polish.musicsources.pl/pl/lokalizacje/galeria/druki-muzyczne/23228/26 @EN{Scan on Polish Music Sources Website} @PL{Skany w portalu Dziedzictwo Muzyki Polskiej w otwartym dostępie}
!!!IIIF:
!!!ONB-nifc:
!!!AIN: 1 piano 1 vox
!!!key: F
!!!OMD: Moderato.
**kern	**kern	**dynam	**kern	**text	**text	**dynam
*part2	*part2	*part2	*part1	*part1	*part1	*part1
*staff3	*staff2	*staff2/3	*staff1	*staff1	*staff1	*staff1
*I"Piano	*I"Piano	*	*I"Voice	*	*	*
*I'pf	*I'pf	*	*I'V	*	*	*
*Ipiano	*Ipiano	*	*Ivox	*	*	*
*ICklav	*ICklav	*	*ICvox	*	*	*
*IGacmp	*IGacmp	*	*IGsolo	*	*	*
*>[A,A,B]	*>[A,A,B]	*>[A,A,B]	*>[A,A,B]	*>[A,A,B]	*>[A,A,B]	*>[A,A,B]
*>A	*>A	*>A	*>A	*>A	*>A	*>A
*clefF4	*clefG2	*	*clefG2	*	*	*
*k[b-]	*k[b-]	*	*k[b-]	*	*	*
*F:	*F:	*	*F:	*	*	*
*M2/4	*M2/4	*	*M2/4	*	*	*
=1	=1	=1	=1	=1	=1	=1
*ped	*	*	*	*	*	*
!	!LO:TX:a:i:t=Umiarkowanie.	!	!	!	!	!
(8FF/	2r	p	2r	.	.	.
4A 4C\	.	.	.	.	.	.
8c 8F\)	.	.	.	.	.	.
=2	=2	=2	=2	=2	=2	=2
(8FF/	2r	.	2r	.	.	.
4A 4C\	.	.	.	.	.	.
8c 8F\)	.	.	.	.	.	.
=3	=3	=3	=3	=3	=3	=3
*ped	*	*	*	*v:1	*v:2	*
8FF/	(8a 8f/	.	8a/	Świę-	Ściel-	p
!	!LO:TX:a:i:t=espressivo	!	!LO:TX:a:i:t=cantabile	!	!	!
.	.	.	.	.	.	.
4A 4C\	4cc 4c/	.	4cc\	-co-	-że	.
*Xped	*	*	*	*	*	*
8c 8F\	8b- 8d/)	.	8b-\	-ne	się	.
=4	=4	=4	=4	=4	=4	=4
*ped	*	*	*	*	*	*
8FF/	(8g 8e/	.	8g/	ja-	o-	.
4G 4C\	4cc 4d/	.	4cc\	-jecz-	-bru-	.
*Xped	*	*	*	*	*	*
8c 8G\	8b- 8e/)	.	8b-\	-ko,	-sie	.
!!LO:LB:g=original
=5	=5	=5	=5	=5	=5	=5
*ped	*	*	*	*v:1	*v:2	*
*	*^	*	*	*	*	*
8FF/	(8a/L	8f\	.	8a/	Śli-	Ja-	.
4A 4C\	16g/L	4c\	.	(16g/LL	-czna	-ko	.
.	16f/JJ	.	.	16f/JJ)	.	.	.
.	8e/L	.	.	8e/	ma-	śnie-	.
*Xped	*	*	*	*	*	*	*
8A 8F\	8f/J)	8c\	.	8f/	-lo-	-żek	.
*	*v	*v	*	*	*	*	*
=6	=6	=6	=6	=6	=6	=6
*ped	*	*	*	*	*	*
8FF/	(>8g/	.	8g/	-wan-	bia-	.
4B- 4C\	4.cc 4.e/)	.	4cc\	-ka!	-ły,	.
*Xped	*	*	*	*	*	*
8c 8G\	.	.	8r	.	.	.
=7	=7	=7	=7	=7	=7	=7
*ped	*	*	*	*	*	*
8FF/	(>8aL 8f/	.	8a/	Śpie-	Mo-	.
4A 4C\	8bn 8d/	.	8bn\	-wam	-jej	.
.	8cc 8c/	.	8cc\	so-	ma-	.
*Xped	*	*	*	*	*	*
8c 8F\	8aJ 8f/)	.	8a/	-bie,	-my	.
=8	=8	=8	=8	=8	=8	=8
*ped	*	*	*	*	*	*
8FF/	(>8gL 8e/	.	8g/	ska-	rącz-	.
4G 4C\	8bn 8d/	.	8bn/	-czę	-ki	.
.	8cc 8c/	.	8cc\	so-	dro-	.
*Xped	*	*	*	*	*	*
8c 8B-X\	8gJ 8e/)	.	8g,/	-bie	-gie	.
!!LO:LB:g=original
=9	=9	=9	=9	=9	=9	=9
*ped	*	*	*	*v:1	*v:2	*
8FF/	(>8a/L	.	8a/	Od	Cie-	.
4A 4C\	16gL 16c/	.	(16g/LL	sa-	-bie	.
.	16f/JJ	.	16f/JJ)	.	.	.
.	8d/L	.	8d/	-me-	roz-	.
*Xped	*	*	*	*	*	*
8B- 8G\	8eJ 8c/	.	8e/	-go	-kła-	.
=10	=10	=10	=10	=10	=10	=10
*ped	*	*	*	*	*	*
8FF/	8f/	.	8f/	ran-	-da-	.
4A 4F\	4a 4c/)	.	4a/	-ka.	-ły.	.
*Xped	*	*	*	*	*	*
8A 8F\	8r	.	8r	.	.	.
=11	=11	=11	=11	=11	=11	=11
*ped	*	*	*	*	*	*
8CC/	8b-/	.	8b-/	We-	Roz-	.
4B- 4C\	4a 4e/	.	4a/	-so-	-kła-	.
*Xped	*	*	*	*	*	*
8B- 8C\	8g 8e/	.	8g/	-ły	-da-	.
=12	=12	=12	=12	=12	=12	=12
*ped	*	*	*	*	*	*
8CC/	8f#X/	.	8f#X/	dzień	-ły	.
4B- 4C\	4g 4e/	.	4g/	na-	cie-	.
*Xped	*	*	*	*	*	*
8B- 8C\	8a 8e/	.	8a,/	-stał,	-bie,	.
!!LO:PB:g=original
=13	=13	=13	=13	=13	=13	=13
*ped	*	*	*	*v:1	*v:2	*
8C/	(8.b-/L	.	8.b-\	Za-	Na	.
4e 4B-\	.	.	.	.	.	.
.	16a/Jk	.	16a/	-dźwię-	tym	.
.	8b-\L	.	8b-\	-cza-	dłu-	.
*Xped	*	*	*	*	*	*
8e 8c 8B-\	8dd\J	.	8dd\	-ły	-gim	.
=14	=14	=14	=14	=14	=14	=14
*ped	*	*	*	*	*	*
8FF/	4cc\	.	4cc\	dzwo-	sto-	.
4f 4c 4A\	.	.	.	.	.	.
.	8a/)	.	8a/	-ny!	-le,	.
*Xped	*	*	*	*	*	*
8f 8c 8A\	8r	.	8r	.	.	.
=15	=15	=15	=15	=15	=15	=15
*ped	*	*	*	*	*	*
8E-X\	(>8.g/L	<	8.g/	Ko-	Że-	<
4c 4A 4F\	.	.	.	.	.	.
.	16f/Jk	.	16f/	-łem,	-by	.
.	8a/L	[	8a/	ko-	by-	[
*Xped	*	*	*	*	*	*
8c 8A 8F\	8cc/J)	.	8cc\	-łem	-ło	.
!!LO:LB:g=original
=16	=16	=16	=16	=16	=16	=16
*ped	*	*	*	*v:1	*v:2	*
!	!	!LO:DY:rj	!	!	!	!LO:DY:rj
8D\L	(8dd\L	mf	8dd\	bo-	dla	f
8dJ 8B- 8F\	8ee\J	.	8ee\	-ró-	sie-	.
8GG\L	8ff\L	.	8ff\	-we-	-rot-	.
*Xped	*	*	*	*	*	*
8dJ 8B- 8F\	16ee\L	.	(16ee\LL	-czki,	-ki	.
.	16dd\JJ)	.	16dd\JJ)	.	.	.
=17	=17	=17	=17	=17	=17	=17
*ped	*	*	*	*	*	*
8AA\L	(8cc\L	>	8cc\	Jak	Miej-	>
*Xped	*	*	*	*	*	*
8cJ 8F\	8dd\J)	.	8dd\	wia-	-sce	.
*ped	*	*	*	*	*	*
8CC\L	(8e/L	.	8e/	-nek	w na-	]
8B-J 8C\	16g/L	]	(16g/LL	zie-	-szem	.
*Xped	*	*	*	*	*	*
.	16b-/JJ	.	16b-/JJ)	.	.	.
=18	=18	=18	=18	=18	=18	=18
*ped	*	*	*	*	*	*
!	!	!	!	!	!	!LO:DY:rj
8FF/	16a/LL	p	(16a/LL	-lo-	ko-	p
.	16g/JJ	.	16g/JJ)	.	.	.
4A 4F\	4f 4c/)	.	4f/	-ny.	-le.	.
8A 8F\	8r	.	8r	.	.	.
=19:|!	=19:|!	=19:|!	=19:|!	=19:|!	=19:|!	=19:|!
*>B	*>B	*>B	*>B	*>B	*>B	*>B
2C 2FF;/	2f 2A;/	.	2r;	.	.	.
==	==	==	==	==	==	==
*-	*-	*-	*-	*-	*-	*-
!!!system-decoration: p1{p2}
!!!RDF**kern: > = above
!!!RDF**kern: < = below
!!!ENC: Andrzej Gręziak
!!!END: 2025-03-05
!!!ENC: Marta Lawrence
!!!END: 2025-03-20
